!! 00000] TT[00
!! NN
!!!OTL: Bansheng lÅdou
!!!ARE: Asia, China,Hunan, Jiahe
!! Ethnic Group: Han
!! I, 539 (2)
!!!SCT: C1282
!!!YEM: Copyright 1995, estate of Helmut Schaffrath.
**kern
*ICvox
*Ivox
!! Mixed meters:  3/4; 2/4
*M2/4
*k[b-]
*F:
{8a
8cc
4.a
8d
=1
8a
8cc
4.dd
8ff
=2
8cc
8a
8dd
8ff
8dd
8cc
=3
2a}
=4
{8dd
8dd
8dd
8cc
=5
*M3/4
8a
8cc
4.a
8g
=6
8f
8d
4a
8g
8f
=7
*M2/4
2d}
=8
{8f
8d
8f
8g
=9
4.a
8cc
=10
8dd
8cc
8a
8cc
=11
2a}
=12
{8f
8d
8f
8g
=13
4.a
8cc
=14
8dd
8cc
8a
8cc
=15
2a}
==
!!!AGN: Banjiage, Heiratslied, ww, vor der Heirat. Jiao diao (Es gibt nur wenige
!!    Lieder in dieser Weise). Banjia ge.
!! Wird am Abend vor der Heirat gesungen. Inhalt: Er waehlt die
!!    Bohnen aus, aber meine Mutter waehlt mir keinen Mann.
!!!ONB: ESAC (Essen Associative Code) Database: CHINA_071
!!!AMT: irregular
!!!AIN: vox
!!!EED: Helmut Schaffrath
!!!EEV: 1.0
*-
